icons/sort-desc-16.svg

<svg width="16" height="16" viewBox="0 0 16 16" fill="none" xmlns="http://www.w3.org/2000/svg">
<path fill-rule="evenodd" clip-rule="evenodd" d="M0 4.25C0 3.83579 0.335786 3.5 0.75 3.5H8.25C8.66421 3.5 9 3.83579 9 4.25C9 4.66421 8.66421 5 8.25 5H0.75C0.335786 5 0 4.66421 0 4.25ZM0 8.25C0 7.83579 0.335786 7.5 0.75 7.5H5.25C5.66421 7.5 6 7.83579 6 8.25C6 8.66421 5.66421 9 5.25 9H0.75C0.335786 9 0 8.66421 0 8.25ZM0 12.25C0 11.8358 0.335786 11.5 0.75 11.5H3.25C3.66421 11.5 4 11.8358 4 12.25C4 12.6642 3.66421 13 3.25 13H0.75C0.335786 13 0 12.6642 0 12.25Z" fill="#24292E"/>
<path d="M13.5 10H15.75C15.8511 10 15.9423 10.0609 15.981 10.1543C16.0197 10.2477 15.9983 10.3553 15.9268 10.4268L12.9268 13.4268C12.8291 13.5244 12.6708 13.5244 12.5732 13.4268L9.57322 10.4268C9.50172 10.3553 9.48033 10.2477 9.51902 10.1543C9.55772 10.0609 9.64888 10 9.74999 10H12L12 3.75C12 3.33579 12.3358 3 12.75 3C13.1642 3 13.5 3.33579 13.5 3.75L13.5 10Z" fill="#24292E"/>
</svg>

<svg xmlns="http://www.w3.org/2000/svg" width="16" height="16" viewBox="0 0 16 16"><path fill-rule="evenodd" d="M0 4.25a.75.75 0 01.75-.75h7.5a.75.75 0 010 1.5H.75A.75.75 0 010 4.25zm0 4a.75.75 0 01.75-.75h4.5a.75.75 0 010 1.5H.75A.75.75 0 010 8.25zm0 4a.75.75 0 01.75-.75h2.5a.75.75 0 010 1.5H.75a.75.75 0 01-.75-.75z"/><path d="M13.5 10h2.25a.25.25 0 01.177.427l-3 3a.25.25 0 01-.354 0l-3-3A.25.25 0 019.75 10H12V3.75a.75.75 0 011.5 0V10z"/></svg>
